X:1
T:Title
%%score { ( 1 3 ) | ( 2 4 ) }
L:1/8
M:3/4
K:Eb
V:1 treble nm="Grand Piano"
V:3 treble 
V:2 bass 
V:4 bass 
V:1
 z2 z[Q:1/4=85] E G[Ec] | [EB]3 [EG] [DF][FA] | [EG]3 [GB] cc | e4 e2 | z2 z2 z d | %5
 [Ge]3 [EG] [EA][EB] | [Ec]3 [Ec] [EB][G,E] | [A,F]2 G2 [A,DF]2 |[M:3/8] [G,E]3 | BBB | %10
[M:3/4] B6- | B4 z2 | B6- | B4 z2 | e4 e2 | d3 d dd | e6- | e4 z2 | c6- | %19
 c4 z2[Q:1/4=84][Q:1/4=83][Q:1/4=81][Q:1/4=80] | %20
 [A,F]2 G2 [A,DF]2[Q:1/4=79][Q:1/4=78][Q:1/4=76][Q:1/4=75][Q:1/4=74][Q:1/4=73][Q:1/4=71][Q:1/4=70][Q:1/4=69][Q:1/4=68][Q:1/4=66][Q:1/4=65] | %21
[M:9/16] [G,E]4- [G,E]/ |] %22
V:2
 z2 z [E,G,] [E,B,E][A,,A,] | [E,G,]3 [E,B,] [B,,B,][D,B,] | [E,B,]3 [E,E][K:treble] [A,EA][A,EA] | %3
 [A,CA]4 [A,CA]2 | [B,A]3 [B,A] [B,F].[B,B] | [E,B,]3 [_D,B,] [C,A,][B,,G,] | %6
 [A,,A,]3 [=A,,_G,] [B,,=G,]B,, | z2 B,2 B,,2 |[M:3/8] E,3 | GFE |[M:3/4] D6[K:bass] | %11
 [E,G,]3[K:treble] G FE | D6[K:bass] | [E,G,]3 [E,E][K:treble] [A,EA][A,EA] | [A,CA]4 [A,CA]2 | %15
 [B,F]3 A AA | G6- | G4[K:treble] z2 | A6- | A4[K:bass] z2 | z2 B,2 B,,2 |[M:9/16] E,4- E,/ |] %22
V:3
 x6 | x6 | x6 | x6 | d3 d .d>A | x6 | x6 | D4 z2 |[M:3/8] x3 | x3 |[M:3/4] z2 z F, F,A, | E3 B BB | %12
 z2 z F, F,A, | E3 [GB] cc | x6 | x6 | z2 z B, B,B, | B,3 G AB | z2 z E EE | E3 [Ec] [EB][G,E] | %20
 D4 z2 |[M:9/16] x9/2 |] %22
V:4
 x6 | x6 | x4[K:treble] x2 | x6 | x6 | x6 | x6 | B,,4 z2 |[M:3/8] x3 | x3 | %10
[M:3/4] z2 z[K:bass] B,, B,,B,, | x3[K:treble] x3 | z2 z[K:bass] B,, B,,B,, | x4[K:treble] x2 | %14
 x6 | x6 | z2 z E, E,E, | E,3[K:treble] E FG | z2 z A, A,A, | A,3[K:bass] [=A,,_G,] [B,,=G,]B,, | %20
 B,,4 z2 |[M:9/16] x9/2 |] %22

